X: 1
T: Albanian #1
T: Punt\"etoret t\"e Ndertimit
Z: John Chambers <jc@trillian.mit.edu> http://trillian.mit.edu/~jc/music/
M: 5/8
L: 1/8
K: G
|: DD \
| "G"[d2B] [dB][ec][dB] \
| "Am"[c3A] [dB][dB] \
| "D7"[f2d] [fd][ec][cA] \
| "G"[B3G] DD \
| [d2B] [dB][dB][fd] \
| "Am"[e3c] [a/f][g/e][f/d][e/c] \
| "D7"[d2B] [dB][dB][cA] \
| "G"[B3G] :|
|: [GB,][AC] \
| "G"[B2D] [BD][cE][BD] \
| [cE][B2D] [GB,][AC] \
| [B2D] [cE][d=F][dF] \
| "Am"[c3E] [cE][cE] \
| [c2E] [cE][cE][cE] \
| "D7"[f2A] [fA][fA][eG] \
| [d2F] [cE][BD][AC] \
| "G"[G3B,] :|
|: [DB,][DB,] \
| "G"[G2D] [GD][GD][AF] \
| [B2G] [BG][BG][cA] \
| [d2B] [dB][cA][BG] \
| "Am"[c3A] [AE][AE] \
| "D7"[G2E] [FD][AF][AF] \
| [G2E] [FD][AF][GE] \
| [F2D] [EC][DB,][CA,] \
| "G"[B,3G,] :|
